docs/img/error-c.svg

<svg width="36" height="30" viewBox="0 0 36 30" fill="none" xmlns="http://www.w3.org/2000/svg">
<path d="M2.20816 20.2978C6.91336 20.5545 11.7478 23.0824 15.1718 26.3262C15.8227 26.9429 15.8769 28.064 16.3721 28.4601C16.541 28.5952 23.5972 23.6815 24.5077 23.2053C26.9701 21.9172 29.5145 20.5749 32.1364 19.631C32.9071 19.3536 33.5541 19.5432 33.8969 18.8574" stroke="#FF4000" stroke-width="3" stroke-linecap="round"/>
<path d="M21.4135 4.45457C21.3542 2.08524 21.2084 2.01168 19.0128 2.05391C16.9608 2.09337 15.3078 2.9748 14.1048 4.66796C12.3691 7.11079 11.7437 11.5946 12.3976 14.5374C12.8613 16.6238 14.1444 18.9494 16.5055 18.8586C18.0043 18.8009 19.9731 16.9909 19.9731 15.4976" stroke="#FF4000" stroke-width="3" stroke-linecap="round"/>
</svg>

<svg width="36" height="30" fill="none" xmlns="http://www.w3.org/2000/svg"><path d="M2.208 20.298c4.705.257 9.54 2.784 12.964 6.028.65.617.705 1.738 1.2 2.134.169.135 7.225-4.779 8.136-5.255 2.462-1.288 5.007-2.63 7.628-3.574.771-.277 1.418-.088 1.76-.774M21.413 4.455c-.059-2.37-.205-2.443-2.4-2.401-2.052.04-3.705.92-4.908 2.614-1.736 2.443-2.361 6.927-1.707 9.87.463 2.086 1.746 4.411 4.108 4.32 1.498-.057 3.467-1.867 3.467-3.36" stroke="#FF4000" stroke-width="3" stroke-linecap="round"/></svg>
